public/static/icons/editor/superscript.svg

<svg height="24" viewBox="0 0 24 24" width="24" xmlns="http://www.w3.org/2000/svg"><path d="m7.49480769 12.6513661 2.61126571-5.10664351c.1709653-.33434322.5148306-.54472259.8903496-.54472259h2.3226828c.5522847 0 1 .44771525 1 1 0 .16667431-.0416607.33070525-.1211943.4771796l-3.813296 7.0228204 3.813296 7.0228204c.2635391.485351.0837249 1.0924464-.4016261 1.3559854-.1464744.0795336-.3105053.1211942-.4771796.1211942h-2.3214297c-.3761748 0-.7205248-.2111074-.8911779-.546346l-2.6064982-5.1203201-2.60649815 5.1203201c-.17065319.3352386-.51500312.546346-.89117791.546346h-2.32142969c-.55228475 0-1-.4477153-1-1 0-.1666743.04166062-.3307053.1211942-.4771796l3.81329604-7.0228204-3.81329604-7.0228204c-.26353902-.48535103-.08372485-1.09244638.40162619-1.35598539.14647435-.07953359.3105053-.12119421.47717961-.12119421h2.3216806c.37604352 0 .72029649.21096154.89101237.54602097zm15.40855361-3.6513661c.3697479 0 .644958-.07563025.8256303-.22689076.1806723-.1512605.2710084-.38655462.2710084-.70588235 0-.31092437-.0903361-.53991597-.2710084-.68697479s-.4558824-.22058823-.8256303-.22058823h-2.5336134l1.789916-1.8277311c.4957983-.5210084.8466386-.99369748 1.052521-1.41806722.2058823-.42436975.3088235-.89285715.3088235-1.40546219 0-.49579832-.1281513-.93487395-.3844538-1.31722689s-.6197479-.67647059-1.0903361-.88235294-1.0168067-.30882353-1.6386555-.30882353c-.4789916 0-.9642857.07563025-1.4558823.22689076-.4915967.1512605-.934874.36134453-1.329832.6302521-.1512605.10084033-.2542016.21008403-.3088235.32773109-.0546218.11764706-.0819328.26890756-.0819328.45378151 0 .2605042.0714286.48529412.2142858.67436975.1428571.18907563.3193277.28361345.5294117.28361345.0840336 0 .1638656-.01260505.2394958-.03781513.0756303-.02521008.1617647-.06512605.2584034-.1197479.0966386-.05462185.1617647-.09033613.1953781-.10714286l.2521009-.12605042c.2689075-.13445378.5063025-.23739496.7121848-.30882353.2058824-.07142857.4306723-.10714285.6743698-.10714285.302521 0 .5357143.07563025.6995798.22689075.1638656.15126051.2457983.3697479.2457983.65546219 0 .48739496-.2773109 1.0210084-.8319327 1.60084033l-2.6722689 2.78571429c-.2857143.29411765-.4285715.62184874-.4285715.98319328 0 .27731092.0882353.50630252.2647059.68697479s.4159664.2710084.7184874.2710084z" fill-rule="evenodd"/></svg>

<svg xmlns="http://www.w3.org/2000/svg" width="24" height="24" viewBox="0 0 24 24">
  <path fill-rule="evenodd" d="M7.49480769 12.6513661L10.1060734 7.54472259C10.2770387 7.21037937 10.620904 7 10.996423 7L13.3191058 7C13.8713905 7 14.3191058 7.44771525 14.3191058 8 14.3191058 8.16667431 14.2774451 8.33070525 14.1979115 8.4771796L10.3846155 15.5 10.3846155 15.5 14.1979115 22.5228204C14.4614506 23.0081714 14.2816364 23.6152668 13.7962854 23.8788058 13.649811 23.9583394 13.4857801 24 13.3191058 24L10.9976761 24C10.6215013 24 10.2771513 23.7888926 10.1064982 23.453654L7.5 18.3333339 7.5 18.3333339 4.89350185 23.453654C4.72284866 23.7888926 4.37849873 24 4.00232394 24L1.68089425 24C1.1286095 24 .680894246 23.5522847.680894246 23 .680894246 22.8333257.72255487 22.6692947.802088451 22.5228204L4.61538449 15.5 4.61538449 15.5.802088451 8.4771796C.538549433 7.99182857.718363603 7.38473322 1.20371464 7.12119421 1.35018899 7.04166062 1.51421994 7 1.68089425 7L4.00257485 7C4.37861837 7 4.72287134 7.21096154 4.89358722 7.54602097L7.49480769 12.6513661 7.49480769 12.6513661zM22.9033613 9C23.2731092 9 23.5483193 8.92436975 23.7289916 8.77310924 23.9096639 8.62184874 24 8.38655462 24 8.06722689 24 7.75630252 23.9096639 7.52731092 23.7289916 7.3802521 23.5483193 7.23319328 23.2731092 7.15966387 22.9033613 7.15966387L22.9033613 7.15966387 20.3697479 7.15966387 22.1596639 5.33193277C22.6554622 4.81092437 23.0063025 4.33823529 23.2121849 3.91386555 23.4180672 3.4894958 23.5210084 3.0210084 23.5210084 2.50840336 23.5210084 2.01260504 23.3928571 1.57352941 23.1365546 1.19117647 22.8802521.808823529 22.5168067.514705882 22.0462185.308823529 21.5756303.102941176 21.0294118 0 20.407563 0 19.9285714 0 19.4432773.0756302521 18.9516807.226890756 18.460084.378151261 18.0168067.588235294 17.6218487.857142857 17.4705882.957983193 17.3676471 1.06722689 17.3130252 1.18487395 17.2584034 1.30252101 17.2310924 1.45378151 17.2310924 1.63865546 17.2310924 1.89915966 17.302521 2.12394958 17.4453782 2.31302521 17.5882353 2.50210084 17.7647059 2.59663866 17.9747899 2.59663866 18.0588235 2.59663866 18.1386555 2.58403361 18.2142857 2.55882353 18.289916 2.53361345 18.3760504 2.49369748 18.4726891 2.43907563 18.5693277 2.38445378 18.6344538 2.3487395 18.6680672 2.33193277L18.6680672 2.33193277 18.9201681 2.20588235C19.1890756 2.07142857 19.4264706 1.96848739 19.6323529 1.89705882 19.8382353 1.82563025 20.0630252 1.78991597 20.3067227 1.78991597 20.6092437 1.78991597 20.842437 1.86554622 21.0063025 2.01680672 21.1701681 2.16806723 21.2521008 2.38655462 21.2521008 2.67226891 21.2521008 3.15966387 20.9747899 3.69327731 20.4201681 4.27310924L20.4201681 4.27310924 17.7478992 7.05882353C17.4621849 7.35294118 17.3193277 7.68067227 17.3193277 8.04201681 17.3193277 8.31932773 17.407563 8.54831933 17.5840336 8.7289916 17.7605042 8.90966387 18 9 18.302521 9L18.302521 9 22.9033613 9z"/>
</svg>
